X:100
T: Danny's Favorite
C: P. Varlet
Z: B.Black
R: reel
M: 4/4
L: 1/8
K: A
FE | CF F2 BAFA | ceef ecAc | B2 fB cBfB |\
B2 fB CBAE |
FAcA BAFA | ceef ecAc | B2 fB cAec |1 BAGE F2 :|\
|2 BAGE FGAB ||
cf-f2 defa | eccB A3 B | ceef ecAB |\
cBBA GBEB |
cf-f2 defa | eccB AEAB | ceag fecA |1 BAGE FGAB :|\
|2 BAGE F2 ||
